X: 1
T: Thrums March
O: Trad
Z: Terry Traub 2003-7-30
M: 6/8
R: jig
L: 1/8
K: G
|: D | "G"GDG BAG | "C"ECE "D7"D2c | "G"BAG dBG | "D"FAA ABc | "G"BAB "Em"GFG | "C"ECE "D"D2c | "G"BAG "D"FGA | "G"AGG G2 :|
|: d | "G"Bcd g2d | "C"ece "D7"d2c | "G"BAG dBG | "D"FAA A2c | "G"Bcd     g2d | "C"ece "D"d2c | "G"BAG "D"FGA | "G"AGG G2 :|
